X:13
T:The Lass of Richmond Hill
S:John Moore's Book 1
Z:Transcribed by Paul Barber-Riley  March 2016
M:2/4
L:1/8
K:D
%%VWML: Moore1-4493-p8-0
F:http://www.vwml.org/record/Moore1/4493/p8
A|Addd | ({e}d)(c/d/) eg | fdBe | (d2 {e/d/}c) A |
Addd | ({e}d)(c/d/) ed | cAB^G | A2zd |
cAAd | cAAd | cegf | (f2 {g/f/}e)d |
cAAd | cA !fermata!a d | cdec | d2zA |
Addf | f3d | ceeg | !fermata!g3d |
ceeg | !fermata!g3e | f>edc | dB !fermata!A G | FAEc | d3:|

